(
s.boot;
s.options.hardwareBufferSize = 64;
s.options.numOutputBusChannels = 8;
s.reboot;
)

s.options.sampleRate =
s.options.blockSize;


s.options.hardwareBufferSize = 64;

s.options.hardwareBufferSize;