(
s.boot;
//s.options.numOutputBusChannels = 8;
s.options.sampleRate = 48000;
s.reboot;
)


//Server.default.options.inDevice_("Built-in Microph");
//Server.default.options.outDevice_("Colunas (MacBook Air)");